FINK
CUT[STOSST AN LEIPZIG SOLL LEBEN]
REG[Europa, Mitteleuropa, Deutschland]
KEY[F0521  16  G 6/8]
MEL[-5_  1__.3_.21_  2__.5_042_  3__.0__
    -5_  1__.3_.21_  2__.5_042_  3__.0__
    13  5__5_5_.65_  5_4_4_4__
    2_  3__5_+1_.53_  3_2_2_2__.
    1_1_1_3__.  2_1_2_1__
    13  5__5_5_.65_  5_4_4_4__
    2_  3__5_+1_.53_  3_2_2_2__.
    1_1_1_3__.  2_1_2_1__ //] >>
FCT[Studenten -, Burschenschafts - Lied]
